public/img/svg/dribbble.svg

<svg width="32" height="31" viewBox="0 0 32 31" fill="none" xmlns="http://www.w3.org/2000/svg">
<path d="M30 15.5C30.0023 17.344 29.6392 19.1702 28.9317 20.8731C28.2241 22.576 27.1861 24.1217 25.8777 25.4211C24.5799 26.7166 23.0396 27.7436 21.3447 28.4435C19.6498 29.1433 17.8337 29.5024 16 29.5C8.26777 29.5 1.99997 23.2322 1.99997 15.5C1.99508 11.9102 3.37398 8.45671 5.84997 5.85751C7.15641 4.47893 8.73041 3.38143 10.4757 2.63218C12.2209 1.88293 14.1007 1.49768 16 1.50001C17.8337 1.49764 19.6498 1.85665 21.3447 2.55653C23.0396 3.25641 24.5799 4.28343 25.8777 5.57891M30 15.5C30.0023 13.656 29.6392 11.8298 28.9317 10.1269C28.2241 8.42404 27.1861 6.87826 25.8777 5.57891M30 15.5C27.9574 15.5 22.3224 14.7299 17.2789 16.944C11.8 19.3499 7.83311 23.0816 6.10411 25.4028M30 15.5C30 17.2241 29.6884 18.8746 29.1179 20.3999M25.8777 5.57891C24.6449 4.35058 23.1942 3.36227 21.5999 2.6647M10.75 2.518C12.941 4.5403 17.722 9.68949 19.5 14.8002C21.278 19.9116 21.936 26.1962 22.342 27.9847M2.10786 13.7501C4.75246 13.9097 11.7532 14.0532 16.2331 12.1401C20.7131 10.227 24.568 6.70808 25.8903 5.59159M3.04992 20.8291C4.28354 23.8152 6.50841 26.285 9.34992 27.8228" stroke="#E3E4E6" stroke-opacity="0.55" stroke-width="2.8" stroke-linecap="round" stroke-linejoin="round"/>
</svg>

<svg width="32" height="31" fill="none" xmlns="http://www.w3.org/2000/svg"><path d="M30 15.5a13.96 13.96 0 0 1-4.122 9.921A13.956 13.956 0 0 1 16 29.5c-7.732 0-14-6.268-14-14a13.952 13.952 0 0 1 3.85-9.642A13.96 13.96 0 0 1 16 1.5a13.956 13.956 0 0 1 9.878 4.079M30 15.5a13.96 13.96 0 0 0-4.122-9.921M30 15.5c-2.043 0-7.678-.77-12.721 1.444-5.479 2.406-9.446 6.138-11.175 8.459M30 15.5c0 1.724-.312 3.375-.882 4.9m-3.24-14.821A14.027 14.027 0 0 0 21.6 2.665m-10.85-.147C12.941 4.54 17.722 9.689 19.5 14.8c1.778 5.112 2.436 11.396 2.842 13.185M2.108 13.75c2.644.16 9.645.303 14.125-1.61s8.335-5.432 9.657-6.548M3.05 20.829a14.054 14.054 0 0 0 6.3 6.994" stroke="#E3E4E6" stroke-opacity=".55" stroke-width="2.8" stroke-linecap="round" stroke-linejoin="round"/></svg>
